X: 38124
T: Sportin' Belles
R: reel
M: 4/4
K: Ddorian
ADDB cBcB|ADDF EDCD|ADDB cBcG|A/B/AGE DcBc|
ADDB cBcB|ADDF EDCD|ADFD E/F/GcG|1 A/B/AGE DcBc:|2 A/B/AGE FEDB||
|:c2gc acgc|c/c/cgc BcdB|c2gc acgc|A/B/AGE EDDB|
c2gc acgc|c/c/cgc BcdE|FGAB ~c2Bc|1 cAGE FEDB:|2 cAGE DcBc||

